X: 42134
T: Washington, The
R: hornpipe
M: 4/4
K: Amajor
F2|Bcde fBAB|gBaB bBAB|GBFB EBDB|GecA BAGF|
Bcde fBAB|gBaB bBAB|GBFB EBDB|GecA B2:|
|:de|fBAB gBAB|gaba g^fgd|g^fgd edeB|cdec BAGF|
Bcde fBAB|gBaB bBAB|GBFB EBDB|GecA B2:|

